X:203
%%musicspace -15
%%topspace -50
T:La Russe
M:4/4
L:1/4
K:G
G/2G/2 | "G"G B/2B/2 B d/2d/2 | d g g f/2g/2 | "C6"a g e c | "D7"e d d/2c/2B/2A/2 | 
"G"G B/2B/2 B d/2d/2 | d g g f/2g/2 | "C"ed "D7"d F | "G"A G G :|]
[K:D][|: A/2A/2 | "D"A d/2d/2 d B | A a/2a/2 a f | "A"g f g e | "D"f/2g/2a/2g/2 f d | 
"D"A d/2d/2 d B | A a/2a/2 a f | "A"g f g e | "D"d3 :|]

